X: 10362
T: IRISH GIRL.     a Jigg.
R: jig
B: "Edinburgh Repository of Music" v.1 p.36 #2
F: http://digital.nls.uk/special-collections-of-printed-music/pageturner.cfm?id=87776133
Z: 2015 John Chambers <jc:trillian.mit.edu>
M: 6/8
L: 1/8
K: A
F |\
E2F A2B | c2c- cBA | c2c cBA | BAB cAF |\
E>FA A>Bc | d2d def | ecA TB2A | TF3 A3 :|
|: d |\
(c/d/e).e ecA | (d/e/f)f fga | (c/d/e)e ecA | BGE TE2d |\
(c/d/e).e ecA | (d/e/f)f fga | ecA TB2A | TF3 A2 :|

%%sep 2 1 500
%%sep 1 1 500

